X:1
T:Mr. Alexander Sherriff's (Gerrard Street, Aberdeen)
T:Mr. Alexander Sherriff's (Gerrard Street, Aberdeen)
T:Alexander Walker
C:Alexander Walker
L:1/8
M:4/4
K:A
V:1 treble 
V:1
 C | A,>e d/c/B/G/ A2 E>C | D>B,E>A, G,<B,B,>c | d/c/B/A/ e>G A2 E>C | (3DEF (3EFG AA,A, :| f | %6
 e>A f/e/d/c/ e<A{g} a>f | e>Ae>c f<BB3/2{g}a | e>A f/e/d/c/ e<A E>C | D>FB,>E C<B,A,>f | %10
 e>A f/e/d/c/ e<A{g} a>f | e<Ae>c f<BB>g | a>fg>e f>de>c | d>Be>B c<A A || %14

